X: 653
T: Erişdi Nevbahar Eyyâmı
C: Ârif Sâmi Toker
O: Turkey
F: http://compmusic.upf.edu/node/140
N: nihavent--sarki--semai--erisdi_nevbahar--arif_sami_toker
N: makam= nihavent
N: form= sarki
N: usul= semai = 3/4
M: 3/4
L: 1/16
K: C _B _e  
Q: 1/4=144
%%MIDI tuningsystem comma53
d12  | g8 a4  | b8 g4  | d'12  | a12  | b4 a4 b4  | \
w:  ARANAĞME  |   |   |   |   |   | 
a2b2 a2g2 ^f2e2  | d12  | d12  | g8 f4  | e8 d4  | 
w:   |   |   |   |   | 
c12  | A4 B4 c4  | d4 B4 A4  | G4 B4 c4  | d12  | d12  | \
w:   |   |   |   |   |   | 
g8 f4  | e8 d4  | c12  | A4 B4 c4  | d4 B4 A4  | 
w:   |   |   |   |   | 
G4 B4 d4  | G12  | d4 d8  | g8 a4  | b8 g4  | d'12  | a12  | \
w:   |   |  E riş  |  di   |  nev ba  |  har   |  ey  | 
b8 a2g2  | g12  | b3a g2a2 b4  | 
w:  yâ  |  mı   |  SAZ  | 
b4 b8  | {c'}b4 a4 g4  | a8-a2^f2  | ^f12  | \
w:  â çıl  |  *  dı   |  gül_  |  ü   | 
a8-a2d2  | d4 e4 ^f4  | d4 A4 c4  | B4 A4 G4  | 
w:  gül  |   |  şen   SAZ  |   | 
d4 d8  | g8 a4  | b8 g4  | d'12  | a12  | b8 a2g2  | g12  | \
w:  E riş  |  di   |  nev ba  |  har   |  ey  |  yâ  |  mı   | 
b3a g2a2 b4  | b4 b8  | {c'}b4 a4 g4  | 
w:  SAZ  |  â çıl  |  *  dı   | 
a8-a2^f2  | ^f12  | a8-a2d2  | d4 e4 ^f4  | d12  | \
w:  gül_  |  ü   |  gül  |   |  şen    | 
G2A2 B2c2 d4  | d4 d8  | g12  | c8 d4  | 
w:  SAZ  |  Çe ra  |  ğan   |  vak ti   | 
e6d2 d2c2  | c6B2 B2A2  | A8 G4  | d12  | G2A2 B2c2 d2^c2  | \
w:  gel *  di   |  lâ *  le  |  zâ  |  rın   |  SAZ  | 
c4 B4 A4  | e12  | 
w:  dî *  de  |  si   | 
{e}d4 c4 B4  | .A12  | d4 ^c4 d4  | B4 A4 B4  | G12  | \
w:  *  rû   |   |  rû  |   |  şen    | 
G2A2 B2c2 d4  | d4 d8  | g12  | c8 d4  | 
w:  SAZ  |  Çe ra  |  ğan   |  vak ti   | 
e6d2 d2c2  | c6B2 B2A2  | A8 G4  | d12  | G2A2 B2c2 d2^c2  | \
w:  gel *  di   |  lâ *  le  |  zâ  |  rın   |  SAZ  | 
c4 B4 A4  | e12  | 
w:  dî *  de  |  si   | 
{e}d4 c4 B4  | .A12  | d4 ^c4 d4  | B4 A4 B4  | G12  | b12  | \
w:  *  rû   |   |  rû  |   |  şen    |  SAZ  | 
b4 b8  | b12  | {c'}b4 a4 g4  | ^f4 g4 a4  | 
w:  Çe men  |  ler   |  *  dön  |  *  *  dü   | 
{c'}b4 a4 g4  | ^f4 g4 a2c'2  | b12  | d2^f2 g2a2 b4  | \
w:  *  rûy_ *  i   |  yâ  |  re   |  SAZ  | 
b8 b4  | {c'}b4 a4 g4  | a8-a2^f2  | 
w:  reng_ i   |  *  lâ *  le   |  vü   | 
.^f12  | a8-a2d2  | d4 e4 ^f4  | d12  | b12  | \
w:   |  gül  |   |  den    |  SAZ  | 
b4 b8  | b12  | {c'}b4 a4 g4  | ^f4 g4 a4  | \
w:  Çe men  |  ler   |  *  dön  |  *  *  dü   | 
{c'}b4 a4 g4  | 
w:  *  rûy_ *  i   | 
^f4 g4 a2c'2  | b12  | d2^f2 g2a2 b4  | \
w:  yâ  |  re   |  SAZ  | 
b8 b4  | {c'}b4 a4 g4  | a8-a2^f2  | .^f12  | \
w:  reng_ i   |  *  lâ *  le   |  vü   |   | 
a8-a2d2  | 
w:  gül  | 
d4 e4 ^f4  | d12  | G2A2 B2c2 d4  | d4 d8  | g12  | \
w:   |  den    |  SAZ  |  Çe ra  |  ğan   | 
c8 d4  | e6d2 d2c2  | c6B2 B2A2  | 
w:  vak ti   |  gel *  di   |  lâ *  le  | 
A8 G4  | d12  | G2A2 B2c2 d2^c2  | c4 B4 A4  | e12  | \
w:  zâ  |  rın   |  SAZ  |  dî *  de  |  si   | 
{e}d4 c4 B4  | .A12  | d4 ^c4 d4  | B4 A4 B4  | 
w:  *  rû   |   |  rû  |   | 
G12  | d12  | g8 a4  | b8 g4  | d'12  | a12  | b4 a4 b4  | \
w:  şen    |  ARANAĞME  |   |   |   |   |   | 
a2b2 a2g2 ^f2e2  | d12  | d12  | g8 f4  | 
w:   |   |   |   | 
e8 d4  | c12  | A4 B4 c4  | d4 B4 A4  | G4 B4 c4  | d12  | d12  | \
w:   |   |   |   |   |   |   | 
g8 f4  | e8 d4  | c12  | A4 B4 c4  | 
w:   |   |   |   | 
d4 B4 A4  | G4 B4 d4  | G12  | d4 d8  | g8 a4  | \
w:   |   |   |  Â çıl  |  dı   | 
b8 g4  | d'12  | a12  | b8 a2g2  | g12  | b3a g2a2 b4  | 
w:  dil be  |  rin   |  ruh  |  sâ  |  rı   |  SAZ  | 
b4 b8  | {c'}b4 a4 g4  | a8-a2^f2  | ^f12  | \
w:  gi bi   |  *  lâ *  le  |  ler   |   | 
a8-a2d2  | d4 e4 ^f4  | d4 A4 c4  | B4 A4 G4  | 
w:  gül  |   |  ler   SAZ  |   | 
d4 d8  | g8 a4  | b8 g4  | d'12  | a12  | b8 a2g2  | g12  | \
w:  Â çıl  |  dı   |  dil be  |  rin   |  ruh  |  sâ  |  rı   | 
b3a g2a2 b4  | b4 b8  | {c'}b4 a4 g4  | 
w:  SAZ  |  gi bi   |  *  lâ *  le  | 
a8-a2^f2  | ^f12  | a8-a2d2  | d4 e4 ^f4  | d12  | \
w:  ler   |   |  gül  |   |  ler    | 
G2A2 B2c2 d4  | d4 d8  | g12  | c8 d4  | 
w:  SAZ  |  Ya kış  |  tı   |  zülf_ i   | 
e6d2 d2c2  | c6B2 B2A2  | A8 G4  | d12  | G2A2 B2c2 d2^c2  | \
w:  hû  |  ban   |  veş  ze  |  mî  |  SAZ  | 
c4 B4 A4  | e12  | 
w:  ne   |  saç  | 
{e}d4 c4 B4  | .A12  | d4 ^c4 d4  | B4 A4 B4  | G12  | \
w:  *  lı   |  sün  |  bül  |   |  ler    | 
G2A2 B2c2 d4  | d4 d8  | g12  | c8 d4  | 
w:  SAZ  |  Ya kış  |  tı   |  zülf_ i   | 
e6d2 d2c2  | c6B2 B2A2  | A8 G4  | d12  | G2A2 B2c2 d2^c2  | \
w:  hû  |  ban   |  veş  ze  |  mî  |  SAZ  | 
c4 B4 A4  | e12  | 
w:  ne   |  saç  | 
{e}d4 c4 B4  | .A12  | d4 ^c4 d4  | B4 A4 B4  | G12  | b12  | \
w:  *  lı   |  sün  |  bül  |   |  ler    |  SAZ  | 
b4 b8  | b12  | {c'}b4 a4 g4  | ^f4 g4 a4  | 
w:  Ne vâ  |  saz   |  *  ol  |  *  *  ma  | 
{c'}b4 a4 g4  | ^f4 g4 a2c'2  | b12  | d2^f2 g2a2 b4  | \
w:  *  da   |  bin   |  şevk   |  SAZ  | 
b8 b4  | {c'}b4 a4 g4  | a8-a2^f2  | 
w:  i le   |  *  â  |  şüf  | 
.^f12  | a8-a2d2  | d4 e4 ^f4  | d12  | b12  | \
w:  te   |  bül  |  bül  |  ler    |  SAZ  | 
b4 b8  | b12  | {c'}b4 a4 g4  | ^f4 g4 a4  | \
w:  Ne vâ  |  saz   |  *  ol  |  *  *  ma  | 
{c'}b4 a4 g4  | 
w:  *  da   | 
^f4 g4 a2c'2  | b12  | d2^f2 g2a2 b4  | \
w:  bin   |  şevk   |  SAZ  | 
b8 b4  | {c'}b4 a4 g4  | a8-a2^f2  | .^f12  | \
w:  i le   |  *  â  |  şüf  |  te   | 
a8-a2d2  | 
w:  bül  | 
d4 e4 ^f4  | d12  | G2A2 B2c2 d4  | d4 d8  | g12  | \
w:  bül  |  ler    |  SAZ  |  Ya kış  |  tı   | 
c8 d4  | e6d2 d2c2  | c6B2 B2A2  | 
w:  zülf_ i   |  hû  |  ban   | 
A8 G4  | d12  | G2A2 B2c2 d2^c2  | c4 B4 A4  | e12  | \
w:  veş  ze  |  mî  |  SAZ  |  ne   |  saç  | 
{e}d4 c4 B4  | .A12  | d4 ^c4 d4  | B4 A4 B4  | 
w:  *  lı   |  sün  |  bül  |   | 
G12  | |


